X:757
T:Manitoba's Golden Boy
C:Andy De Jarlis
M:2/4
L:1/16
N:as written by Andy DeJarlis
Z:abc by Bruce Osborne
Z:<http://tunes.nhcountrydance.com>.
K:D
F2G2|A4 d3e|f6cd|e2d2 c2B2|A6F2| G4 e3e|e6G2|F4 d3d|d4 F2G2|!
A4 d3e|f6cd|e2d2 c2B2|A6F2| G4 e2d2|c2A2 B2c2|d4 d2e2|d4:|!
|:e3f|g2B2 g2B2|g4 a3g|f2A2 f2A2|f4 g3f| e2A2 c2d2|e2g2 f2e2|f8 -|f4 e3f|!
g2B2 g2B2|g4 a3g|f2A2 f2A2|f4 g3f| e2A2 c2d2|e2g2 f2e2|d4 d2e2|d4:|!

